SF_Symbols/star.slash.svg

<?xml version="1.0" encoding="UTF-8"?>
<svg xmlns="http://www.w3.org/2000/svg" xmlns:xlink="http://www.w3.org/1999/xlink" width="24" height="24" viewBox="0 0 24 24" version="1.1">
<g id="surface1">
<path style=" stroke:none;fill-rule:nonzero;fill:rgb(100%,100%,100%);fill-opacity:1;" d="M 4.863281 22.605469 C 5.078125 22.769531 5.324219 22.828125 5.59375 22.769531 C 5.863281 22.722656 6.160156 22.582031 6.480469 22.355469 L 11.988281 18.300781 L 17.511719 22.355469 C 17.828125 22.582031 18.121094 22.722656 18.386719 22.769531 C 18.65625 22.820312 18.902344 22.765625 19.125 22.605469 C 19.214844 22.542969 19.339844 22.390625 19.5 22.15625 L 12.519531 16.699219 C 12.355469 16.566406 12.175781 16.5 11.988281 16.5 C 11.808594 16.5 11.636719 16.566406 11.46875 16.699219 L 6.457031 20.519531 C 6.410156 20.554688 6.378906 20.5625 6.363281 20.542969 C 6.351562 20.527344 6.351562 20.496094 6.363281 20.449219 L 8.4375 14.488281 C 8.507812 14.289062 8.515625 14.109375 8.46875 13.949219 C 8.425781 13.78125 8.316406 13.636719 8.136719 13.511719 L 2.949219 9.925781 C 2.898438 9.898438 2.882812 9.871094 2.894531 9.84375 C 2.902344 9.824219 2.933594 9.8125 2.988281 9.8125 L 7.261719 9.886719 L 5.699219 8.332031 L 1.9375 8.3125 C 1.535156 8.304688 1.210938 8.363281 0.96875 8.488281 C 0.726562 8.613281 0.5625 8.800781 0.480469 9.050781 C 0.394531 9.308594 0.417969 9.558594 0.542969 9.800781 C 0.667969 10.046875 0.890625 10.28125 1.21875 10.511719 L 6.78125 14.511719 L 4.605469 20.988281 C 4.472656 21.363281 4.425781 21.6875 4.46875 21.957031 C 4.515625 22.230469 4.648438 22.445312 4.863281 22.605469 Z M 17.5 14.300781 L 22.769531 10.511719 C 23.097656 10.28125 23.324219 10.046875 23.449219 9.800781 C 23.574219 9.558594 23.59375 9.308594 23.511719 9.050781 C 23.425781 8.800781 23.265625 8.613281 23.019531 8.488281 C 22.777344 8.363281 22.453125 8.304688 22.050781 8.3125 L 15.230469 8.355469 L 13.15625 1.84375 C 13.03125 1.460938 12.871094 1.171875 12.675781 0.980469 C 12.488281 0.785156 12.261719 0.6875 11.988281 0.6875 C 11.726562 0.6875 11.496094 0.785156 11.300781 0.980469 C 11.113281 1.171875 10.957031 1.460938 10.832031 1.84375 L 9.425781 6.261719 L 10.667969 7.5 L 11.9375 3.300781 C 11.953125 3.246094 11.96875 3.21875 11.988281 3.21875 C 12.015625 3.21875 12.039062 3.246094 12.050781 3.300781 L 13.863281 9.332031 C 13.925781 9.546875 14.027344 9.703125 14.167969 9.800781 C 14.304688 9.890625 14.484375 9.933594 14.699219 9.925781 L 21 9.8125 C 21.054688 9.8125 21.085938 9.824219 21.09375 9.84375 C 21.109375 9.871094 21.089844 9.898438 21.042969 9.925781 L 16.355469 13.167969 Z M 21 21.824219 C 21.160156 21.976562 21.351562 22.050781 21.574219 22.050781 C 21.796875 22.050781 21.984375 21.976562 22.136719 21.824219 C 22.289062 21.664062 22.363281 21.472656 22.363281 21.25 C 22.371094 21.027344 22.296875 20.839844 22.136719 20.6875 L 5.269531 3.875 C 5.109375 3.714844 4.921875 3.636719 4.699219 3.636719 C 4.476562 3.636719 4.285156 3.714844 4.125 3.875 C 3.972656 4.027344 3.894531 4.21875 3.894531 4.449219 C 3.894531 4.671875 3.972656 4.859375 4.125 5.011719 Z M 21 21.824219 "/>
</g>
</svg>

<svg xmlns="http://www.w3.org/2000/svg" width="24" height="24"><path style="stroke:none;fill-rule:nonzero;fill:#fff;fill-opacity:1" d="M4.863 22.605c.215.165.461.223.73.165.27-.047.567-.188.887-.415l5.508-4.054 5.524 4.054c.316.227.61.368.875.415.27.05.515-.004.738-.165.09-.062.215-.214.375-.449L12.52 16.7a.85.85 0 0 0-.532-.199.841.841 0 0 0-.52.2l-5.011 3.82c-.047.035-.078.043-.094.023-.011-.016-.011-.047 0-.094l2.074-5.96c.07-.2.079-.38.032-.54-.043-.168-.153-.312-.332-.437L2.949 9.926c-.05-.028-.066-.055-.054-.082.007-.02.039-.031.093-.031l4.274.074-1.563-1.555-3.761-.02c-.403-.007-.727.051-.97.176a.94.94 0 0 0-.488.563.932.932 0 0 0 .063.75c.125.246.348.48.676.71l5.562 4-2.176 6.477c-.132.375-.18.7-.136.969.047.273.18.488.394.648ZM17.5 14.301l5.27-3.79c.328-.23.554-.464.68-.71a.96.96 0 0 0-.43-1.313c-.243-.125-.567-.183-.97-.175l-6.82.042-2.074-6.511c-.125-.383-.285-.672-.48-.864a.912.912 0 0 0-.688-.292.955.955 0 0 0-.687.292c-.188.192-.344.48-.469.864L9.426 6.262 10.668 7.5l1.27-4.2c.015-.054.03-.081.05-.081.028 0 .051.027.063.082l1.812 6.031c.063.215.164.371.305.469.137.09.316.133.531.125L21 9.812c.055 0 .086.012.094.032.015.027-.004.054-.051.082l-4.688 3.242Zm3.5 7.523c.16.153.352.227.574.227.223 0 .41-.074.563-.227a.802.802 0 0 0 .226-.574.713.713 0 0 0-.226-.563L5.27 3.875a.767.767 0 0 0-.57-.238.782.782 0 0 0-.575.238.79.79 0 0 0-.23.574c0 .223.078.41.23.563Zm0 0"/></svg>
